src/assets/logout-icon-white.svg

<svg width="19" height="24" viewBox="0 0 19 24" fill="none" xmlns="http://www.w3.org/2000/svg">
<path d="M15.0573 0.769348H3.651C1.71194 0.769348 0.229126 2.24014 0.229126 4.16349V10.9518H10.0385L7.41506 8.34959C6.95881 7.89704 6.95881 7.21821 7.41506 6.76566C7.87131 6.31311 8.55569 6.31311 9.01194 6.76566L13.5744 11.2912C14.0307 11.7437 14.0307 12.4226 13.5744 12.8751L9.01194 17.4006C8.55569 17.8532 7.87131 17.8532 7.41506 17.4006C6.95881 16.9481 6.95881 16.2693 7.41506 15.8167L10.0385 13.2145H0.229126V20.0028C0.229126 21.9262 1.71194 23.3969 3.651 23.3969H15.0573C16.9963 23.3969 18.4791 21.9262 18.4791 20.0028V4.16349C18.4791 2.24014 16.9963 0.769348 15.0573 0.769348Z" fill="white"/>
</svg>

<svg width="19" height="24" fill="none" xmlns="http://www.w3.org/2000/svg"><path d="M15.057.77H3.651C1.711.77.229 2.24.229 4.162v6.789h9.81L7.415 8.35a1.088 1.088 0 010-1.584 1.109 1.109 0 011.597 0l4.562 4.525a1.087 1.087 0 010 1.584l-4.562 4.526a1.109 1.109 0 01-1.597 0 1.088 1.088 0 010-1.584l2.624-2.603H.229v6.789c0 1.923 1.483 3.394 3.422 3.394h11.406c1.94 0 3.422-1.47 3.422-3.394V4.163C18.48 2.24 16.996.77 15.057.77z" fill="#fff"/></svg>
